packages/core/src/svgs/dag.svg

<svg width="24" height="24" viewBox="0 0 24 24" fill="none" xmlns="http://www.w3.org/2000/svg">
<g clip-path="url(#clip0_31_8998)">
<path d="M0 0H24V24H0V0Z" fill="url(#paint0_linear_31_8998)"/>
<path d="M5.14282 8.16422L12.0214 4.28564L18.8571 8.16422V15.8314L12 19.7142L5.14282 15.8314V8.15993V8.16422Z" fill="white"/>
<path d="M11.3915 5.10865L5.77725 8.29294L7.6501 11.5072L11.3915 5.10865ZM17.7901 8.14294L12.103 4.86865L10.183 8.14294H17.7901ZM18.4287 14.8972V8.57151H14.5715L18.4287 14.8972ZM12.5572 18.8229L18.1801 15.6515L16.3201 12.4372L12.5572 18.8229ZM6.22296 15.8572L11.8458 19.1015L13.7872 15.8572H6.22296ZM5.57153 9.0858V15.4287H9.39439L5.57153 9.0858ZM7.9501 11.8629L9.6001 9.06008V12.7972L7.9501 11.8629ZM10.0372 8.57151H13.3372L10.0372 10.3972V8.57151ZM14.053 8.57151L15.7115 11.4387L12.4115 9.5658L14.0572 8.57151H14.053ZM16.0072 12.0944L14.3615 14.8972V11.1601L16.0072 12.0944ZM13.9158 15.4287H10.6158L13.9072 13.5729L13.9158 15.4287ZM9.9001 15.4287L8.24153 12.5272L11.5287 14.4172L9.9001 15.4287ZM10.0501 10.9072L11.9787 9.8058L13.9115 10.9072V13.0672L11.9787 14.1687L10.0501 13.0672V10.9072Z" fill="black"/>
</g>
<defs>
<linearGradient id="paint0_linear_31_8998" x1="4.46571" y1="4.16143" x2="29.2071" y2="32.58" gradientUnits="userSpaceOnUse">
<stop stop-color="#1A1E21"/>
<stop offset="1" stop-color="#06060A"/>
</linearGradient>
<clipPath id="clip0_31_8998">
<rect width="24" height="24" fill="white"/>
</clipPath>
</defs>
</svg>

<svg xmlns="http://www.w3.org/2000/svg" width="24" height="24" fill="none" viewBox="0 0 24 24"><g clip-path="url(#a)"><path fill="url(#b)" d="M0 0h24v24H0z"/><path fill="#fff" d="m5.143 8.164 6.878-3.878 6.836 3.878v7.667L12 19.714l-6.857-3.883V8.16z"/><path fill="#000" d="M11.392 5.109 5.777 8.293l1.873 3.214zm6.398 3.034-5.687-3.274-1.92 3.274zm.639 6.754V8.572h-3.857zm-5.872 3.926 5.623-3.171-1.86-3.215zm-6.334-2.966 5.623 3.245 1.941-3.245zm-.651-6.771v6.343h3.822zm2.378 2.777L9.6 9.06v3.737zm2.087-3.291h3.3l-3.3 1.825zm4.016 0 1.658 2.867-3.3-1.873 1.646-.994zm1.954 3.522-1.646 2.803V11.16zm-2.091 3.335h-3.3l3.291-1.856zm-4.016 0-1.658-2.902 3.287 1.89zm.15-4.522 1.929-1.101 1.933 1.101v2.16l-1.933 1.102-1.929-1.102z"/></g><defs><linearGradient id="b" x1="4.466" x2="29.207" y1="4.161" y2="32.58" gradientUnits="userSpaceOnUse"><stop stop-color="#1A1E21"/><stop offset="1" stop-color="#06060A"/></linearGradient><clipPath id="a"><path fill="#fff" d="M0 0h24v24H0z"/></clipPath></defs></svg>
